icons/src/scalable/emblems/sign-language-symbolic.svg

<?xml version="1.0" encoding="UTF-8" standalone="no"?>
<svg
   height="16px"
   viewBox="0 0 16 16"
   width="16px"
   version="1.1"
   id="svg163"
   sodipodi:docname="sign-language-symbolic.svg"
   inkscape:version="1.1 (c68e22c387, 2021-05-23)"
   xmlns:inkscape="http://www.inkscape.org/namespaces/inkscape"
   xmlns:sodipodi="http://sodipodi.sourceforge.net/DTD/sodipodi-0.dtd"
   xmlns="http://www.w3.org/2000/svg"
   xmlns:svg="http://www.w3.org/2000/svg">
  <defs
     id="defs167" />
  <sodipodi:namedview
     id="namedview165"
     pagecolor="#ffffff"
     bordercolor="#666666"
     borderopacity="1.0"
     inkscape:pageshadow="2"
     inkscape:pageopacity="0.0"
     inkscape:pagecheckerboard="0"
     showgrid="true"
     inkscape:zoom="16.625"
     inkscape:cx="9.5338346"
     inkscape:cy="12.120301"
     inkscape:window-width="1366"
     inkscape:window-height="704"
     inkscape:window-x="0"
     inkscape:window-y="27"
     inkscape:window-maximized="1"
     inkscape:current-layer="svg163">
    <inkscape:grid
       type="xygrid"
       id="grid1514" />
  </sodipodi:namedview>
  <filter
     id="a"
     height="1"
     width="1"
     x="0"
     y="0">
    <feColorMatrix
       in="SourceGraphic"
       type="matrix"
       values="0 0 0 0 1 0 0 0 0 1 0 0 0 0 1 0 0 0 1 0"
       id="feColorMatrix2" />
  </filter>
  <mask
     id="b">
    <g
       filter="url(#a)"
       id="g7">
      <path
         d="m 0 0 h 16 v 16 h -16 z"
         fill-opacity="0.3"
         id="path5" />
    </g>
  </mask>
  <clipPath
     id="c">
    <path
       d="m 0 0 h 1024 v 800 h -1024 z"
       id="path10" />
  </clipPath>
  <mask
     id="d">
    <g
       filter="url(#a)"
       id="g15">
      <path
         d="m 0 0 h 16 v 16 h -16 z"
         fill-opacity="0.05"
         id="path13" />
    </g>
  </mask>
  <clipPath
     id="e">
    <path
       d="m 0 0 h 1024 v 800 h -1024 z"
       id="path18" />
  </clipPath>
  <mask
     id="f">
    <g
       filter="url(#a)"
       id="g23">
      <path
         d="m 0 0 h 16 v 16 h -16 z"
         fill-opacity="0.05"
         id="path21" />
    </g>
  </mask>
  <clipPath
     id="g">
    <path
       d="m 0 0 h 1024 v 800 h -1024 z"
       id="path26" />
  </clipPath>
  <mask
     id="h">
    <g
       filter="url(#a)"
       id="g31">
      <path
         d="m 0 0 h 16 v 16 h -16 z"
         fill-opacity="0.05"
         id="path29" />
    </g>
  </mask>
  <clipPath
     id="i">
    <path
       d="m 0 0 h 1024 v 800 h -1024 z"
       id="path34" />
  </clipPath>
  <mask
     id="j">
    <g
       filter="url(#a)"
       id="g39">
      <path
         d="m 0 0 h 16 v 16 h -16 z"
         fill-opacity="0.05"
         id="path37" />
    </g>
  </mask>
  <clipPath
     id="k">
    <path
       d="m 0 0 h 1024 v 800 h -1024 z"
       id="path42" />
  </clipPath>
  <mask
     id="l">
    <g
       filter="url(#a)"
       id="g47">
      <path
         d="m 0 0 h 16 v 16 h -16 z"
         fill-opacity="0.05"
         id="path45" />
    </g>
  </mask>
  <clipPath
     id="m">
    <path
       d="m 0 0 h 1024 v 800 h -1024 z"
       id="path50" />
  </clipPath>
  <mask
     id="n">
    <g
       filter="url(#a)"
       id="g55">
      <path
         d="m 0 0 h 16 v 16 h -16 z"
         fill-opacity="0.05"
         id="path53" />
    </g>
  </mask>
  <clipPath
     id="o">
    <path
       d="m 0 0 h 1024 v 800 h -1024 z"
       id="path58" />
  </clipPath>
  <mask
     id="p">
    <g
       filter="url(#a)"
       id="g63">
      <path
         d="m 0 0 h 16 v 16 h -16 z"
         fill-opacity="0.3"
         id="path61" />
    </g>
  </mask>
  <clipPath
     id="q">
    <path
       d="m 0 0 h 1024 v 800 h -1024 z"
       id="path66" />
  </clipPath>
  <mask
     id="r">
    <g
       filter="url(#a)"
       id="g71">
      <path
         d="m 0 0 h 16 v 16 h -16 z"
         fill-opacity="0.5"
         id="path69" />
    </g>
  </mask>
  <clipPath
     id="s">
    <path
       d="m 0 0 h 1024 v 800 h -1024 z"
       id="path74" />
  </clipPath>
  <mask
     id="t">
    <g
       filter="url(#a)"
       id="g79">
      <path
         d="m 0 0 h 16 v 16 h -16 z"
         fill-opacity="0.4"
         id="path77" />
    </g>
  </mask>
  <clipPath
     id="u">
    <path
       d="m 0 0 h 1024 v 800 h -1024 z"
       id="path82" />
  </clipPath>
  <mask
     id="v">
    <g
       filter="url(#a)"
       id="g87">
      <path
         d="m 0 0 h 16 v 16 h -16 z"
         fill-opacity="0.4"
         id="path85" />
    </g>
  </mask>
  <clipPath
     id="w">
    <path
       d="m 0 0 h 1024 v 800 h -1024 z"
       id="path90" />
  </clipPath>
  <mask
     id="x">
    <g
       filter="url(#a)"
       id="g95">
      <path
         d="m 0 0 h 16 v 16 h -16 z"
         fill-opacity="0.5"
         id="path93" />
    </g>
  </mask>
  <clipPath
     id="y">
    <path
       d="m 0 0 h 1024 v 800 h -1024 z"
       id="path98" />
  </clipPath>
  <mask
     id="z">
    <g
       filter="url(#a)"
       id="g103">
      <path
         d="m 0 0 h 16 v 16 h -16 z"
         fill-opacity="0.5"
         id="path101" />
    </g>
  </mask>
  <clipPath
     id="A">
    <path
       d="m 0 0 h 1024 v 800 h -1024 z"
       id="path106" />
  </clipPath>
  <g
     clip-path="url(#c)"
     mask="url(#b)"
     transform="matrix(1 0 0 1 -440 -40)"
     id="g111">
    <path
       d="m 562.460938 212.058594 h 10.449218 c -1.183594 0.492187 -1.296875 2.460937 0 3 h -10.449218 z m 0 0"
       fill="#2e3436"
       id="path109" />
  </g>
  <g
     clip-path="url(#e)"
     mask="url(#d)"
     transform="matrix(1 0 0 1 -440 -40)"
     id="g115">
    <path
       d="m 16 632 h 1 v 1 h -1 z m 0 0"
       fill="#2e3436"
       fill-rule="evenodd"
       id="path113" />
  </g>
  <g
     clip-path="url(#g)"
     mask="url(#f)"
     transform="matrix(1 0 0 1 -440 -40)"
     id="g119">
    <path
       d="m 17 631 h 1 v 1 h -1 z m 0 0"
       fill="#2e3436"
       fill-rule="evenodd"
       id="path117" />
  </g>
  <g
     clip-path="url(#i)"
     mask="url(#h)"
     transform="matrix(1 0 0 1 -440 -40)"
     id="g123">
    <path
       d="m 18 634 h 1 v 1 h -1 z m 0 0"
       fill="#2e3436"
       fill-rule="evenodd"
       id="path121" />
  </g>
  <g
     clip-path="url(#k)"
     mask="url(#j)"
     transform="matrix(1 0 0 1 -440 -40)"
     id="g127">
    <path
       d="m 16 634 h 1 v 1 h -1 z m 0 0"
       fill="#2e3436"
       fill-rule="evenodd"
       id="path125" />
  </g>
  <g
     clip-path="url(#m)"
     mask="url(#l)"
     transform="matrix(1 0 0 1 -440 -40)"
     id="g131">
    <path
       d="m 17 635 h 1 v 1 h -1 z m 0 0"
       fill="#2e3436"
       fill-rule="evenodd"
       id="path129" />
  </g>
  <g
     clip-path="url(#o)"
     mask="url(#n)"
     transform="matrix(1 0 0 1 -440 -40)"
     id="g135">
    <path
       d="m 19 635 h 1 v 1 h -1 z m 0 0"
       fill="#2e3436"
       fill-rule="evenodd"
       id="path133" />
  </g>
  <g
     clip-path="url(#q)"
     mask="url(#p)"
     transform="matrix(1 0 0 1 -440 -40)"
     id="g139">
    <path
       d="m 136 660 v 7 h 7 v -7 z m 0 0"
       fill="#2e3436"
       id="path137" />
  </g>
  <g
     clip-path="url(#s)"
     mask="url(#r)"
     transform="matrix(1 0 0 1 -440 -40)"
     id="g143">
    <path
       d="m 199 642 h 3 v 12 h -3 z m 0 0"
       fill="#2e3436"
       id="path141" />
  </g>
  <g
     clip-path="url(#u)"
     mask="url(#t)"
     transform="matrix(1 0 0 1 -440 -40)"
     id="g147">
    <path
       d="m 209.5 144.160156 c 0.277344 0 0.5 0.222656 0.5 0.5 v 1 c 0 0.277344 -0.222656 0.5 -0.5 0.5 s -0.5 -0.222656 -0.5 -0.5 v -1 c 0 -0.277344 0.222656 -0.5 0.5 -0.5 z m 0 0"
       fill="#2e3436"
       id="path145" />
  </g>
  <g
     clip-path="url(#w)"
     mask="url(#v)"
     transform="matrix(1 0 0 1 -440 -40)"
     id="g151">
    <path
       d="m 206.5 144.160156 c 0.277344 0 0.5 0.222656 0.5 0.5 v 1 c 0 0.277344 -0.222656 0.5 -0.5 0.5 s -0.5 -0.222656 -0.5 -0.5 v -1 c 0 -0.277344 0.222656 -0.5 0.5 -0.5 z m 0 0"
       fill="#2e3436"
       id="path149" />
  </g>
  <g
     clip-path="url(#y)"
     mask="url(#x)"
     transform="matrix(1 0 0 1 -440 -40)"
     id="g155">
    <path
       d="m 229.5 143.160156 c -0.546875 0 -1 0.457032 -1 1 c 0 0.546875 0.453125 1 1 1 s 1 -0.453125 1 -1 c 0 -0.542968 -0.453125 -1 -1 -1 z m 0 0"
       fill="#2e3436"
       id="path153" />
  </g>
  <g
     clip-path="url(#A)"
     mask="url(#z)"
     transform="matrix(1 0 0 1 -440 -40)"
     id="g159">
    <path
       d="m 226.453125 143.160156 c -0.519531 0 -0.953125 0.433594 -0.953125 0.953125 v 0.09375 c 0 0.519531 0.433594 0.953125 0.953125 0.953125 h 0.09375 c 0.519531 0 0.953125 -0.433594 0.953125 -0.953125 v -0.09375 c 0 -0.519531 -0.433594 -0.953125 -0.953125 -0.953125 z m 0 0"
       fill="#2e3436"
       id="path157" />
  </g>
  <path
     d="M 11.4,5.2 C 11.264,5.2 11.128,5.216 11,5.248 V 2.8 C 11,1.92 10.28,1.2 9.4,1.2 9.2480003,1.2 9.144,1.224 9,1.264 8.8479999,0.536 8.3680003,0 7.6,0 6.896,0 6.216,0.376 6,1 5.848,0.952 5.768,1 5.6,1 4.72,1 4,1.72 4,2.6 V 3.248 C 3.872,3.216 3.636,3.2 3.5,3.2 2.62,3.2 2,3.92 2,4.8 v 5.6 C 2,13.496 4.304,16 7.4,16 10.496,16 13,13.496 13,10.4 V 6.8 C 13,5.92 12.28,5.2 11.4,5.2 Z M 12,10.4 C 12,12.832 9.832,15 7.4,15 4.968,15 3,12.832 3,10.4 V 4.47 C 3,4.246 3.276,4 3.5,4 3.724,4 4,4.246 4,4.47 V 8 H 5 V 2.47 C 5,2.246 5.276,2 5.5,2 5.724,2 6,2.246 6,2.47 V 7 H 7 V 1.47 C 7,1.246 7.276,1 7.5,1 7.724,1 8,1.246 8,1.47 V 7 H 9 V 2.505 C 9,2.281 9.2760003,2 9.5,2 9.724,2 10,2.281 10,2.505 V 9.2 C 8.8239997,9.672 8,11 8,12 h 1 c 0,-1.104 0.896,-2 2,-2 V 6.435 C 11,6.211 11.276,6 11.5,6 11.724,6 12,6.211 12,6.435 Z"
     id="path4"
     style="fill:#808080;fill-opacity:1;stroke-width:0.8"
     sodipodi:nodetypes="scsscscsscsssssssssssssccsssccsssccsssccccssss" />
</svg>

<svg version="1.1" viewBox="0 0 16 16" xmlns="http://www.w3.org/2000/svg">
 <path d="m11.4 5.2c-0.136 0-0.272 0.016-0.4 0.048v-2.448c0-0.88-0.72-1.6-1.6-1.6-0.152 0-0.256 0.024-0.4 0.064-0.152-0.728-0.632-1.264-1.4-1.264-0.704 0-1.384 0.376-1.6 1-0.152-0.048-0.232 0-0.4 0-0.88 0-1.6 0.72-1.6 1.6v0.648c-0.128-0.032-0.364-0.048-0.5-0.048-0.88 0-1.5 0.72-1.5 1.6v5.6c0 3.096 2.304 5.6 5.4 5.6s5.6-2.504 5.6-5.6v-3.6c0-0.88-0.72-1.6-1.6-1.6zm0.6 5.2c0 2.432-2.168 4.6-4.6 4.6s-4.4-2.168-4.4-4.6v-5.93c0-0.224 0.276-0.47 0.5-0.47s0.5 0.246 0.5 0.47v3.53h1v-5.53c0-0.224 0.276-0.47 0.5-0.47s0.5 0.246 0.5 0.47v4.53h1v-5.53c0-0.224 0.276-0.47 0.5-0.47s0.5 0.246 0.5 0.47v5.53h1v-4.495c0-0.224 0.276-0.505 0.5-0.505 0.224 0 0.5 0.281 0.5 0.505v6.695c-1.176 0.472-2 1.8-2 2.8h1c0-1.104 0.896-2 2-2v-3.565c0-0.224 0.276-0.435 0.5-0.435s0.5 0.211 0.5 0.435z" fill="#808080" stroke-width=".8"/>
</svg>
